X:1
T:Title
%%score { 1 | ( 2 3 ) }
L:1/8
Q:1/4=100
M:3/4
K:Eb
V:1 treble nm="Grand Piano"
V:2 bass 
V:3 bass 
V:1
 [GB]4 [FA][EG] | [CF] [CA]3 [CG][CF] | [B,E]3 [EG] [GB][FA] | [EG]4 z2 | [GB]4 [FA][EG] | %5
w: F.~E.~Belden * *|||||
 [CF] [CA]3 [CG][CF] | E4 F2 | E4 EE | [Ec]4 [Ac]2 |[M:2/4] [Ac] [GB]3 |[M:1/4] [G,E][B,EG] | %11
w: ||||||
[M:3/4] [EGB]3 [B,EG] [CEG][=A,EF] | [B,DF]4 EE | [Ec]4 [Ac]2 | [Ac] [GB]3 [G,E][CEA] | %15
w: ||||
 [B,EG]4 [A,B,F]2 | [G,B,E]4 z2 |[M:4/4] [EGB]2 [B,EG]2 z2 [EAc]>G | B>A A2 z2 AA | %19
w: ||||
[M:3/4] d3 c BA | [Ac]2 [GB]2 z2 |[M:4/4] [GB]2 [EG]2 z2 [Ac]>[EG] | [GB]>[FA] [FA]2 z2 [FA][EA] | %23
w: ||||
[M:3/4] [DA][CA] A3 D | E4 z2 |] %25
w: ||
V:2
 [E,B,]4 [D,B,][E,B,] | [A,,A,] [A,,E,]3 [A,,E,][A,,A,] | [B,,G,]3 [B,,B,] [B,,B,][D,B,] | %3
 [E,B,]4 z2 | [E,B,]4 [D,B,][F,B,] | [A,,A,] [A,,E,]3 [A,,E,][A,,A,] | [B,,G,B,]4 [B,,A,B,]2 | %7
 [E,G,B,]4 E,E, | [A,,A,]4 [A,E]2 |[M:2/4] [E,E] [E,E]3 |[M:1/4] E,E, |[M:3/4] E,3 E, C,C, | %12
 B,,4 E,E, | [A,,A,]4 [A,E]2 | [E,E] [E,E]3 E,A,, | B,,4 B,,2 | E,4 z2 | %17
[M:4/4] E,2 E,2 z2 E,>[E,B,E] | G>F [B,DF]2 z2 [B,DF][B,DF] |[M:3/4] [B,FA]3 [B,DA] [B,DG][B,DF] | %20
 [E,E]4 z2 |[M:4/4] [E,E]2 [E,B,]2 z2 [E,E]>[E,B,] | [B,,B,]2 [B,,B,]2 z2 [B,,B,][B,,B,] | %23
[M:3/4] [B,,B,][B,,B,] [B,,B,]3 [B,,A,B,] | [E,G,B,]4 z2 |] %25
V:3
 x6 | x6 | x6 | x6 | x6 | x6 | x6 | x6 | x6 |[M:2/4] x4 |[M:1/4] x2 |[M:3/4] x6 | x6 | x6 | x6 | %15
 x6 | x6 |[M:4/4] x8 | [B,D]2 z2 z4 |[M:3/4] x6 | x6 |[M:4/4] x8 | x8 |[M:3/4] x6 | x6 |] %25

